!!!!SEGMENT: Vin3001-Myns_liefkens_bruyn_ooghen
!!!id: Vin3001
!!!AGN: Secular work
!!!voices: 6
!!!COM: Jheronimus Vinders
!!!OTL: Myns liefkens bruyn ooghen
**kern	**kern	**kern	**kern	**kern	**kern
*part6	*part5	*part4	*part3	*part2	*part1
*staff6	*staff5	*staff4	*staff3	*staff2	*staff1
*I"Bassus	*I"Tenor II	*I"Tenor I	*I"Altus	*I"Superius II	*I"Superius I
*I'B.	*I'T. II	*I'T. I	*I'A.	*I'S. II	*I'S. I
*clefF4	*clefGv2	*clefGv2	*clefGv2	*clefG2	*clefG2
*k[b-]	*k[b-]	*k[b-]	*k[b-]	*k[b-]	*k[b-]
*F:	*F:	*F:	*F:	*F:	*F:
*M2/1	*M2/1	*M2/1	*M2/1	*M2/1	*M2/1
*met(C|)	*met(C|)	*met(C|)	*met(C|)	*met(C|)	*met(C|)
=1	=1	=1	=1	=1	=1
0r	0r	0r	0r	0r	1a
.	.	.	.	.	1a
=2	=2	=2	=2	=2	=2
0r	0r	0r	1d	0r	1a
.	.	.	1d	.	1b-y
=3	=3	=3	=3	=3	=3
0r	0r	0r	1d	0r	1a
.	.	.	1e-X	.	2g
.	.	.	.	.	[2b-y
=4	=4	=4	=4	=4	=4
0r	0r	1r	1d	0r	2b-]
.	.	.	.	.	2.a
.	.	1A	1c	.	.
.	.	.	.	.	4g
.	.	.	.	.	[2cc
=5	=5	=5	=5	=5	=5
1r	0r	1A	1c	0r	4cc]
.	.	.	.	.	4b-y
.	.	.	.	.	4a
.	.	.	.	.	4g
1D	.	1A	1d	.	4f
.	.	.	.	.	4g
.	.	.	.	.	[2a
=6	=6	=6	=6	=6	=6
1D	0r	1B-y	1d	0r	4a]
.	.	.	.	.	4g
.	.	.	.	.	1g
1D	.	1A	2d	.	.
.	.	.	2d	.	2f#i
=7	=7	=7	=7	=7	=7
1E	0r	2G	2.B-y	0r	1g
.	.	1B-y	.	.	.
.	.	.	4c	.	.
1D	.	.	1d	.	2.f
.	.	[2A	.	.	.
.	.	.	.	.	8eL
.	.	.	.	.	8dJ
=8	=8	=8	=8	=8	=8
1C	0r	4A]	2r	0r	0e
.	.	4G	.	.	.
.	.	2.c	2G	.	.
1C	.	.	2.c	.	.
.	.	4B-y	.	.	.
.	.	4A	.	.	.
.	.	4G	4B-y	.	.
=9	=9	=9	=9	=9	=9
2.D	1d	4F	4A	0r	1d
.	.	4G	4G	.	.
.	.	2.A	1F	.	.
4C	.	.	.	.	.
2BB-y	1d	.	.	.	1r
.	.	4G	.	.	.
2GG	.	[2G	2G	.	.
=10	=10	=10	=10	=10	=10
1D	1d	2G]	2A	0r	1r
.	.	2F	2B-y	.	.
1C	1e-X	1G	2.c	.	1g
.	.	.	4B-y	.	.
=11	=11	=11	=11	=11	=11
2D	1d	1r	4A	1a	2f
.	.	.	4G	.	.
4C	.	.	1A	.	4e
4BB-y	.	.	.	.	4d
4C	1c	[1A	.	1a	4e
4BB-y	.	.	.	.	4c
4AA	.	.	[2G	.	2cc
4GG	.	.	.	.	.
=12	=12	=12	=12	=12	=12
1AA	0r	2A]	2G]	1a	2cc
.	.	2A	2F#i	.	2cc
1GG	.	2D	1G	1b-y	2b-y
.	.	2G	.	.	[2g
=13	=13	=13	=13	=13	=13
1r	1d	1D	2.A	1a	2g]
.	.	.	.	.	2f
.	.	.	4F	.	.
1C	1e	1r	1c	1g	2.g
.	.	.	.	.	4e
=14	=14	=14	=14	=14	=14
0D	2d	0r	1A	0r	4f
.	.	.	.	.	4g
.	4c	.	.	.	2.a
.	4B-y	.	.	.	.
.	4c	.	2r	.	.
.	4B-y	.	.	.	4g
.	4A	.	2d	.	[2g
.	4G	.	.	.	.
=15	=15	=15	=15	=15	=15
1D	1A	2r	2d	1a	2g]
.	.	1d	2d	.	2f#i
2GG	1G	.	4B-y	1b-y	1g
.	.	.	4c	.	.
2G	.	4c	4d	.	.
.	.	4B-y	4e	.	.
=16	=16	=16	=16	=16	=16
2F	0r	2c	1f	2a	2r
2D	.	2d	.	4g	2a
.	.	.	.	4f	.
4E-i	.	1G	2B-y	4g	2g
4D	.	.	.	4f	.
4C	.	.	2d	4e	2b-y
4BB-y	.	.	.	4d	.
=17	=17	=17	=17	=17	=17
1C	0r	1r	1c	1e	2a
.	.	.	.	.	1g
1D	.	1A	2A	1d	.
.	.	.	[2d	.	2f#i
=18	=18	=18	=18	=18	=18
1GG	0r	2G	2d]	0r	1g
.	.	2G	4c	.	.
.	.	.	4B-y	.	.
1D	.	2.F	2A	.	1r
.	.	.	2B-y	.	.
.	.	4G	.	.	.
=19	=19	=19	=19	=19	=19
2C	0r	4A	1c	0r	0r
.	.	4F	.	.	.
2C	.	4G	.	.	.
.	.	4A	.	.	.
4BB-y	.	1B-y	1d	.	.
4C	.	.	.	.	.
4D	.	.	.	.	.
4E	.	.	.	.	.
=20	=20	=20	=20	=20	=20
1F	0r	2A	2c	0r	1a
.	.	2A	2c	.	.
2G	.	2B-y	2.B-y	.	2g
2E	.	2G	.	.	2g
.	.	.	4c	.	.
=21	=21	=21	=21	=21	=21
1D	1d	2A	2.d	0r	2.f
.	.	2.F	.	.	.
.	.	.	4c	.	4g
1r	2c	.	2A	.	4a
.	.	4D	.	.	4f
.	2c	4E	2G	.	4g
.	.	4F	.	.	4a
=22	=22	=22	=22	=22	=22
1GG	2.B-y	2.G	1d	0r	2.b-y
.	4c	4D	.	.	8aL
.	.	.	.	.	8gJ
2D	2d	2F	1r	.	2f
2C	[2e-i	2E	.	.	2g
=23	=23	=23	=23	=23	=23
2D	2e-]	1F	0r	1a	1f
2F	1d	.	.	.	.
1E	.	1G	.	2g	1r
.	2c#i	.	.	2g	.
=24	=24	=24	=24	=24	=24
2.D	1d	1A	1d	2.f	1a
4E	.	.	.	4g	.
2F	1r	1r	2c	2a	2a
2G	.	.	4B-y	[2b-y	2g
.	.	.	4c	.	.
=25	=25	=25	=25	=25	=25
2r	1d	2.D	4d	2b-]	2.f
.	.	.	4e	.	.
2D	.	.	1f	1a	.
.	.	4E	.	.	4g
2D	1d	2F	.	.	2a
2GG	.	2G	2d	2g	2b-y
=26	=26	=26	=26	=26	=26
1D	1d	4F	1f	1a	2a
.	.	4G	.	.	.
.	.	4A	.	.	2d
.	.	4B-y	.	.	.
1C	1e-X	1c	2r	1r	1g
.	.	.	2c	.	.
=27	=27	=27	=27	=27	=27
2.D	1d	[0A	1.f	1a	2f
.	.	.	.	.	1a
4E	.	.	.	.	.
2F	2.c	.	.	1a	.
2C	.	.	2e	.	[2g
.	4B-y	.	.	.	.
=28	=28	=28	=28	=28	=28
1D	1A	1A]	1d	1a	2g]
.	.	.	.	.	2f#i
1GG	1G	2r	4B-y	1b-y	1g
.	.	.	4c	.	.
.	.	2G	4d	.	.
.	.	.	4e	.	.
=29	=29	=29	=29	=29	=29
1D	0r	1F	4f	1a	2r
.	.	.	4e	.	.
.	.	.	4d	.	2a
.	.	.	4f	.	.
1GG	.	1G	2e	2.g	2b-y
.	.	.	[2d	.	2b-y
.	.	.	.	4f	.
=30	=30	=30	=30	=30	=30
0r	0r	1A	2d]	1e	1a
.	.	.	2c	.	.
.	.	1D	1f	1d	2a
.	.	.	.	.	[2a
=31	=31	=31	=31	=31	=31
0r	0r	1A	2e	0r	2a]
.	.	.	1d	.	4g
.	.	.	.	.	4f
.	.	2A	.	.	1e
.	.	2A	2c#i	.	.
=32	=32	=32	=32	=32	=32
1D	0r	1B-y	1d	0r	2d
.	.	.	.	.	1g
2D	.	1A	2d	.	.
2D	.	.	2d	.	2f#i
=33	=33	=33	=33	=33	=33
1E	0r	1G	2B-y	0r	1g
.	.	.	2G	.	.
1D	.	1F	2B-y	.	1r
.	.	.	[2A	.	.
=34	=34	=34	=34	=34	=34
2C	0r	2E	2A]	0r	1a
2BB-y	.	1D	1G	.	.
1AA	.	.	.	.	2a
.	.	2C	2F#i	.	2a
=35	=35	=35	=35	=35	=35
1GG	0r	0D	2G	0r	1b-y
.	.	.	2d	.	.
1r	.	.	2d	.	1a
.	.	.	2d	.	.
=36	=36	=36	=36	=36	=36
0r	0r	0r	1e	0r	2g
.	.	.	.	.	1b-y
.	.	.	1d	.	.
.	.	.	.	.	[2a
=37	=37	=37	=37	=37	=37
0r	0r	0r	2c	0r	2a]
.	.	.	2B-y	.	1g
.	.	.	1A	.	.
.	.	.	.	.	2f#i
=38	=38	=38	=38	=38	=38
1GG	1d	1G	2G	0r	1g
.	.	.	2B-y	.	.
1D	1f	2.F	1A	.	1a
.	.	4G	.	.	.
=39	=39	=39	=39	=39	=39
2r	2e	2A	2r	0r	2cc
2GG	1d	2B-y	2d	.	2b-y
1D	.	2.F	2f	.	[1a
.	4c	.	4e	.	.
.	4B-y	4G	4d	.	.
=40	=40	=40	=40	=40	=40
2r	2A	2A	2.c	1a	2a]
2AA	2c	2E	.	.	4g
.	.	.	4d	.	4f
1AA	2c	1E	1e	1cc	1e
.	2c	.	.	.	.
=41	=41	=41	=41	=41	=41
0D	0d	0F	2r	2b-y	2d
.	.	.	2A	1a	2.f
.	.	.	2A	.	.
.	.	.	.	.	4g
.	.	.	2A	4g	4a
.	.	.	.	4f	4b-y
=42	=42	=42	=42	=42	=42
2r	1c	1r	1e	2e	0cc
2C	.	.	.	2g	.
1C	1r	2r	2r	2g	.
.	.	2c	2e	2g	.
=43	=43	=43	=43	=43	=43
0F	0r	1c	1f	0a	1cc
.	.	[1c	1f	.	2.a
.	.	.	.	.	4b-y
=44	=44	=44	=44	=44	=44
1C	1e-X	2c]	2g	1g	1cc
.	.	2c	2c	.	.
2.D	2.d	2B-y	2.f	1r	1r
.	.	[2A	.	.	.
4D	4c	.	4f	.	.
=45	=45	=45	=45	=45	=45
2E	2B-y	4A]	2e-X	0r	0r
.	.	4G	.	.	.
2C	2c	1G	2e-i	.	.
1D	1A	.	1d	.	.
.	.	2F#i	.	.	.
=46	=46	=46	=46	=46	=46
1GG	1G	1G	2d	1b-y	1r
.	.	.	2g	.	.
1r	1r	1A	2f	2.a	1cc
.	.	.	[2e	.	.
.	.	.	.	4g	.
=47	=47	=47	=47	=47	=47
1r	1r	2B-y	4e]	2f	2b-y
.	.	.	4d	.	.
.	.	2G	1d	2g	2b-y
1AA	2r	1A	.	1e	1a
.	2c	.	2c#i	.	.
=48	=48	=48	=48	=48	=48
1D	2B-y	2D	1d	1d	1f
.	2.A	2F	.	.	.
2C	.	2E	1r	1r	1r
.	4G	.	.	.	.
2BB-y	[2G	[2D	.	.	.
=49	=49	=49	=49	=49	=49
1AA	2G]	2D]	1c	1r	1r
.	2F#i	2C	.	.	.
1GG	1G	2.D	1B-y	2r	2r
.	.	.	.	2g	[2dd
.	.	4E	.	.	.
=50	=50	=50	=50	=50	=50
2D	0r	2F	2A	2f	2dd]
2E	.	2G	1G	2.e	4cc
.	.	.	.	.	4b-y
2C	.	2E	.	.	2cc
.	.	.	.	4d	.
2D	.	2F	2F	[2d	[2a
=51	=51	=51	=51	=51	=51
1E	0r	2G	2B-y	2d]	4a]
.	.	.	.	.	4g
.	.	2C	2G	2c	1g
1D	.	1F	1A	1d	.
.	.	.	.	.	2f#i
=52	=52	=52	=52	=52	=52
1GG	2.G	[0D	2.B-y	0r	2.g
.	4A	.	4A	.	8fL
.	.	.	.	.	8eJ
1D	2B-y	.	4F	.	[1d
.	.	.	4G	.	.
.	[2A	.	4A	.	.
.	.	.	4F	.	.
=53	=53	=53	=53	=53	=53
2BB-y	4A]	1D]	1B-y	0r	1d]
.	4G	.	.	.	.
2GG	1G	.	.	.	.
1D	.	1r	1A	.	1r
.	2F#i	.	.	.	.
=54	=54	=54	=54	=54	=54
4GG	1G	2.B-y	2.G	2.d	1r
4AA	.	.	.	.	.
4BB-y	.	.	.	.	.
4C	.	4A	4F	4e	.
2D	1r	4F	2D	2f	1a
.	.	4G	.	.	.
2C	.	[2A	2E	[2e	.
=55	=55	=55	=55	=55	=55
1D	0r	2A]	2.F	4e]	2a
.	.	.	.	4d	.
.	.	4G	.	1d	2a
.	.	4F	4G	.	.
1AA	.	1E	[1A	.	1a
.	.	.	.	2c#i	.
=56	=56	=56	=56	=56	=56
1r	2r	[0Dl	1A]	[0dl	1f
.	1A	.	.	.	.
1D	.	.	1F	.	1a
.	2A	.	.	.	.
=57	=57	=57	=57	=57	=57
2GG	2G	0D_	2G	0d_	2b-y
2D	2F	.	2A	.	2a
1GG	2G	.	1B-y	.	1g
.	[2D	.	.	.	.
=58	=58	=58	=58	=58	=58
1D	4D]	0D_	1A	0d_	2f
.	4E	.	.	.	.
.	4F	.	.	.	1a
.	4G	.	.	.	.
2r	2.A	.	1F	.	.
2D	.	.	.	.	2a
.	4A	.	.	.	.
=59	=59	=59	=59	=59	=59
2GG	2B-y	0D_	2G	0d_	2g
2D	2A	.	2A	.	2f
1GG	1G	.	1B-y	.	1g
=60	=60	=60	=60	=60	=60
0Dl	0Fl	0D]	0Al	0d]	0al
==	==	==	==	==	==
*-	*-	*-	*-	*-	*-
!!!system-decoration: s1,s2,s3,s4,s5,s6
!!!RDF**kern: i = editorial accidental
!!!RDF**kern: l = terminal long
!!!ENC: Max Blistain
!!!END: 2025/11/23
!!!EED: Benjamin Ory
!!!EEV: 2025/12/01
!!!YEC: Copyright 2025 Benjamin Ory, All Rights Reserved
!!!ONB: Translated from MusicXML on 2025/12/01
